_site/assets/img/01-4n/IB-IM-4-notenreeks1.svg

<svg clip-rule="evenodd" fill-rule="evenodd" stroke-linejoin="round" stroke-miterlimit="2" viewBox="0 0 502 32" xmlns="http://www.w3.org/2000/svg"><g fill="none" stroke="#000"><path d="m136.48 7.314v17.022" stroke-width=".66"/><path d="m138.741 7.314v17.022" stroke-width=".66"/><path d="m257.235 7.314v17.022" stroke-width=".66"/><path d="m259.496 7.314v17.022" stroke-width=".66"/><path d="m378.124 7.314v17.022" stroke-width=".66"/><path d="m380.384 7.314v17.022" stroke-width=".66"/><path d="m498.879 7.314v17.022" stroke-width=".66"/><path d="m501.14 7.314v17.022" stroke-width=".66"/><path d="m.032 24.336h501.374" stroke-width=".4"/><path d="m.032 20.081h501.374" stroke-width=".4"/><path d="m.032 15.825h501.374" stroke-width=".4"/><path d="m.032 11.569h501.374" stroke-width=".4"/><path d="m.032 7.314h501.374" stroke-width=".4"/></g><path d="m12.127 23.771.647 3.15c.034.187.051.357.051.527 0 1.668-1.703 3.064-3.541 3.064-.562 0-1.107-.136-1.617-.391 1.31-.136 2.298-.936 2.298-2.111 0-1.038-.851-2.128-1.941-2.128-1.242 0-2.094.953-2.094 2.196 0 1.736 1.413 2.877 3.116 2.877 2.281 0 4.221-1.481 4.221-3.609 0-.477-.749-3.847-.732-3.728 1.822-.885 3.064-2.451 3.064-4.102 0-2.264-1.821-4.001-4.085-4.001-.034 0-.272.017-.681.051l-.749-3.591c2.536-2.145 3.694-4.426 3.694-6.929 0-1.923-.766-3.966-2.315-6.111-1.754 1.413-2.758 4.239-2.758 7.252 0 1.072.136 2.111.375 3.098-3.882 3.251-5.822 6.247-5.822 8.988 0 3.217 3.319 5.89 6.928 5.89.8 0 1.396-.119 1.941-.392zm-.051-22.368c.561.579.851 1.26.851 2.06 0 1.651-1.175 3.507-3.473 5.55-.119-.494-.153-1.039-.153-1.635 0-2.859 1.055-6.009 2.468-6.009.119 0 .222.017.307.034zm.357 21.67-1.208-5.685c.238-.017.374-.034.425-.034 1.464 0 2.485 1.379 2.485 2.791 0 1.124-.595 2.111-1.702 2.928zm-1.634-5.617 1.226 5.856c-.596.323-1.26.459-2.06.459-2.758 0-5.141-2.059-5.141-4.562 0-2.264 1.685-4.596 4.868-6.979l.715 3.404c-1.77.375-3.268 1.873-3.268 3.558 0 1.43 1.021 2.434 2.553 2.673-.936-.579-1.395-1.311-1.395-2.179 0-1.175 1.089-2.043 2.502-2.23z" fill-rule="nonzero"/><path d="m30.221 21.544v-14.23" fill="none" stroke="#000" stroke-width=".4"/><path d="m26.409 24.384c1.753 0 3.915-1.464 3.915-2.962 0-.902-.8-1.481-1.941-1.481-1.719 0-3.881 1.43-3.881 2.962 0 .936.834 1.481 1.907 1.481z" fill-rule="nonzero"/><path d="m57.617 19.416v-14.23" fill="none" stroke="#000" stroke-width=".4"/><path d="m53.805 22.256c1.753 0 3.915-1.464 3.915-2.962 0-.902-.8-1.481-1.941-1.481-1.719 0-3.881 1.43-3.881 2.962 0 .937.834 1.481 1.907 1.481z" fill-rule="nonzero"/><path d="m79.294 16.49v14.23" fill="none" stroke="#000" stroke-width=".4"/><path d="m81.068 18.001c1.753 0 3.915-1.464 3.915-2.962 0-.903-.8-1.481-1.941-1.481-1.719 0-3.881 1.43-3.881 2.962 0 .936.834 1.481 1.907 1.481z" fill-rule="nonzero"/><path d="m74.108 18.903 2.4-1.771c1.055-.766 1.464-1.634 1.498-2.281 0-.953-.868-1.668-1.89-1.668-.715 0-1.242.273-1.583.834l.119-5.362h-.544zm1.583-5.039c.545 0 .953.392.953.919 0 .885-1.175 2.588-2.06 3.149-.051-.289-.085-.851-.085-1.685 0-.459.034-1.021.102-1.668.256-.477.613-.715 1.09-.715z" fill-rule="nonzero"/><path d="m106.69 14.362v14.23" fill="none" stroke="#000" stroke-width=".4"/><path d="m108.464 15.873c1.753 0 3.915-1.464 3.915-2.962 0-.902-.8-1.481-1.941-1.481-1.719 0-3.881 1.43-3.881 2.962 0 .936.834 1.481 1.907 1.481z" fill-rule="nonzero"/><path d="m151.109 19.416v-14.23" fill="none" stroke="#000" stroke-width=".4"/><path d="m147.297 22.256c1.753 0 3.915-1.464 3.915-2.962 0-.902-.8-1.481-1.94-1.481-1.72 0-3.882 1.43-3.882 2.962 0 .937.835 1.481 1.907 1.481z" fill-rule="nonzero"/><path d="m178.372 17.288v-14.23" fill="none" stroke="#000" stroke-width=".4"/><path d="m174.56 20.128c1.753 0 3.915-1.464 3.915-2.962 0-.902-.8-1.481-1.94-1.481-1.72 0-3.881 1.43-3.881 2.962 0 .937.834 1.481 1.906 1.481z" fill-rule="nonzero"/><path d="m200.183 14.362v14.23" fill="none" stroke="#000" stroke-width=".4"/><path d="m201.956 15.873c1.753 0 3.915-1.464 3.915-2.962 0-.902-.8-1.481-1.94-1.481-1.72 0-3.881 1.43-3.881 2.962 0 .936.834 1.481 1.906 1.481z" fill-rule="nonzero"/><path d="m227.446 12.234v14.23" fill="none" stroke="#000" stroke-width=".4"/><path d="m229.219 13.745c1.753 0 3.915-1.464 3.915-2.962 0-.902-.8-1.481-1.94-1.481-1.72 0-3.881 1.43-3.881 2.962 0 .936.834 1.481 1.906 1.481z" fill-rule="nonzero"/><path d="m271.864 23.671v-14.23" fill="none" stroke="#000" stroke-width=".4"/><path d="m268.052 26.512c1.754 0 3.916-1.464 3.916-2.962 0-.902-.801-1.481-1.941-1.481-1.719 0-3.881 1.43-3.881 2.962 0 .936.834 1.481 1.906 1.481z" fill-rule="nonzero"/><path d="m299.26 21.544v-14.23" fill="none" stroke="#000" stroke-width=".4"/><path d="m295.448 24.384c1.754 0 3.916-1.464 3.916-2.962 0-.902-.801-1.481-1.941-1.481-1.719 0-3.881 1.43-3.881 2.962 0 .936.834 1.481 1.906 1.481z" fill-rule="nonzero"/><path d="m291.034 23.363-1.634.545v-2.945l1.634-.545zm0-7.048v2.554l-1.634.544v-2.553h-.426v2.673l-.885.289v1.549l.885-.289v2.945l-.885.289v1.549l.885-.289v2.434h.426v-2.553l1.634-.545v2.553h.426v-2.672l.885-.29v-1.549l-.885.29v-2.945l.885-.29v-1.549l-.885.29v-2.435z" fill-rule="nonzero"/><path d="m326.523 17.288v-14.23" fill="none" stroke="#000" stroke-width=".4"/><path d="m322.711 20.128c1.754 0 3.916-1.464 3.916-2.962 0-.902-.801-1.481-1.941-1.481-1.719 0-3.881 1.43-3.881 2.962 0 .937.834 1.481 1.906 1.481z" fill-rule="nonzero"/><path d="m348.334 16.49v14.23" fill="none" stroke="#000" stroke-width=".4"/><path d="m350.107 18.001c1.754 0 3.916-1.464 3.916-2.962 0-.903-.801-1.481-1.941-1.481-1.719 0-3.881 1.43-3.881 2.962 0 .936.834 1.481 1.906 1.481z" fill-rule="nonzero"/><path d="m392.753 25.799v-14.23" fill="none" stroke="#000" stroke-width=".4"/><path d="m388.941 28.64c1.753 0 3.915-1.464 3.915-2.962 0-.902-.8-1.481-1.941-1.481-1.719 0-3.881 1.43-3.881 2.962 0 .936.834 1.481 1.907 1.481z" fill-rule="nonzero"/><path d="m420.016 23.671v-14.23" fill="none" stroke="#000" stroke-width=".4"/><path d="m416.204 26.512c1.753 0 3.915-1.464 3.915-2.962 0-.902-.8-1.481-1.941-1.481-1.719 0-3.881 1.43-3.881 2.962 0 .936.834 1.481 1.907 1.481z" fill-rule="nonzero"/><path d="m447.412 19.416v-14.23" fill="none" stroke="#000" stroke-width=".4"/><path d="m443.6 22.256c1.753 0 3.915-1.464 3.915-2.962 0-.902-.8-1.481-1.941-1.481-1.719 0-3.881 1.43-3.881 2.962 0 .937.834 1.481 1.907 1.481z" fill-rule="nonzero"/><path d="m474.675 17.288v-14.23" fill="none" stroke="#000" stroke-width=".4"/><path d="m470.863 20.128c1.753 0 3.915-1.464 3.915-2.962 0-.902-.8-1.481-1.941-1.481-1.719 0-3.881 1.43-3.881 2.962 0 .937.834 1.481 1.907 1.481z" fill-rule="nonzero"/></svg>

<?xml version="1.0" encoding="UTF-8" standalone="no"?>
<!DOCTYPE svg PUBLIC "-//W3C//DTD SVG 1.1//EN" "http://www.w3.org/Graphics/SVG/1.1/DTD/svg11.dtd">
<svg width="100%" height="100%" viewBox="0 0 502 32" version="1.1" xmlns="http://www.w3.org/2000/svg" xmlns:xlink="http://www.w3.org/1999/xlink" xml:space="preserve" xmlns:serif="http://www.serif.com/" style="fill-rule:evenodd;clip-rule:evenodd;stroke-linejoin:round;stroke-miterlimit:2;">
    <g>
        <path d="M136.48,7.314L136.48,24.336" style="fill:none;stroke:black;stroke-width:0.66px;"/>
        <path d="M138.741,7.314L138.741,24.336" style="fill:none;stroke:black;stroke-width:0.66px;"/>
        <path d="M257.235,7.314L257.235,24.336" style="fill:none;stroke:black;stroke-width:0.66px;"/>
        <path d="M259.496,7.314L259.496,24.336" style="fill:none;stroke:black;stroke-width:0.66px;"/>
        <path d="M378.124,7.314L378.124,24.336" style="fill:none;stroke:black;stroke-width:0.66px;"/>
        <path d="M380.384,7.314L380.384,24.336" style="fill:none;stroke:black;stroke-width:0.66px;"/>
        <path d="M498.879,7.314L498.879,24.336" style="fill:none;stroke:black;stroke-width:0.66px;"/>
        <path d="M501.14,7.314L501.14,24.336" style="fill:none;stroke:black;stroke-width:0.66px;"/>
        <path d="M0.032,24.336L501.406,24.336" style="fill:none;stroke:black;stroke-width:0.4px;"/>
        <path d="M0.032,20.081L501.406,20.081" style="fill:none;stroke:black;stroke-width:0.4px;"/>
        <path d="M0.032,15.825L501.406,15.825" style="fill:none;stroke:black;stroke-width:0.4px;"/>
        <path d="M0.032,11.569L501.406,11.569" style="fill:none;stroke:black;stroke-width:0.4px;"/>
        <path d="M0.032,7.314L501.406,7.314" style="fill:none;stroke:black;stroke-width:0.4px;"/>
        <path d="M12.127,23.771L12.774,26.921C12.808,27.108 12.825,27.278 12.825,27.448C12.825,29.116 11.122,30.512 9.284,30.512C8.722,30.512 8.177,30.376 7.667,30.121C8.977,29.985 9.965,29.185 9.965,28.01C9.965,26.972 9.114,25.882 8.024,25.882C6.782,25.882 5.93,26.835 5.93,28.078C5.93,29.814 7.343,30.955 9.046,30.955C11.327,30.955 13.267,29.474 13.267,27.346C13.267,26.869 12.518,23.499 12.535,23.618C14.357,22.733 15.599,21.167 15.599,19.516C15.599,17.252 13.778,15.515 11.514,15.515C11.48,15.515 11.242,15.532 10.833,15.566L10.084,11.975C12.62,9.83 13.778,7.549 13.778,5.046C13.778,3.123 13.012,1.08 11.463,-1.065C9.709,0.348 8.705,3.174 8.705,6.187C8.705,7.259 8.841,8.298 9.08,9.285C5.198,12.536 3.258,15.532 3.258,18.273C3.258,21.49 6.577,24.163 10.186,24.163C10.986,24.163 11.582,24.044 12.127,23.771ZM12.076,1.403C12.637,1.982 12.927,2.663 12.927,3.463C12.927,5.114 11.752,6.97 9.454,9.013C9.335,8.519 9.301,7.974 9.301,7.378C9.301,4.519 10.356,1.369 11.769,1.369C11.888,1.369 11.991,1.386 12.076,1.403ZM12.433,23.073L11.225,17.388C11.463,17.371 11.599,17.354 11.65,17.354C13.114,17.354 14.135,18.733 14.135,20.145C14.135,21.269 13.54,22.256 12.433,23.073ZM10.799,17.456L12.025,23.312C11.429,23.635 10.765,23.771 9.965,23.771C7.207,23.771 4.824,21.712 4.824,19.209C4.824,16.945 6.509,14.613 9.692,12.23L10.407,15.634C8.637,16.009 7.139,17.507 7.139,19.192C7.139,20.622 8.16,21.626 9.692,21.865C8.756,21.286 8.297,20.554 8.297,19.686C8.297,18.511 9.386,17.643 10.799,17.456Z" style="fill-rule:nonzero;"/>
        <path d="M30.221,21.544L30.221,7.314" style="fill:none;stroke:black;stroke-width:0.4px;"/>
        <path d="M26.409,24.384C28.162,24.384 30.324,22.92 30.324,21.422C30.324,20.52 29.524,19.941 28.383,19.941C26.664,19.941 24.502,21.371 24.502,22.903C24.502,23.839 25.336,24.384 26.409,24.384Z" style="fill-rule:nonzero;"/>
        <path d="M57.617,19.416L57.617,5.186" style="fill:none;stroke:black;stroke-width:0.4px;"/>
        <path d="M53.805,22.256C55.558,22.256 57.72,20.792 57.72,19.294C57.72,18.392 56.92,17.813 55.779,17.813C54.06,17.813 51.898,19.243 51.898,20.775C51.898,21.712 52.732,22.256 53.805,22.256Z" style="fill-rule:nonzero;"/>
        <path d="M79.294,16.49L79.294,30.72" style="fill:none;stroke:black;stroke-width:0.4px;"/>
        <path d="M81.068,18.001C82.821,18.001 84.983,16.537 84.983,15.039C84.983,14.136 84.183,13.558 83.042,13.558C81.323,13.558 79.161,14.988 79.161,16.52C79.161,17.456 79.995,18.001 81.068,18.001Z" style="fill-rule:nonzero;"/>
        <path d="M74.108,18.903L76.508,17.132C77.563,16.366 77.972,15.498 78.006,14.851C78.006,13.898 77.138,13.183 76.116,13.183C75.401,13.183 74.874,13.456 74.533,14.017L74.652,8.655L74.108,8.655L74.108,18.903ZM75.691,13.864C76.236,13.864 76.644,14.256 76.644,14.783C76.644,15.668 75.469,17.371 74.584,17.932C74.533,17.643 74.499,17.081 74.499,16.247C74.499,15.788 74.533,15.226 74.601,14.579C74.857,14.102 75.214,13.864 75.691,13.864Z" style="fill-rule:nonzero;"/>
        <path d="M106.69,14.362L106.69,28.592" style="fill:none;stroke:black;stroke-width:0.4px;"/>
        <path d="M108.464,15.873C110.217,15.873 112.379,14.409 112.379,12.911C112.379,12.009 111.579,11.43 110.438,11.43C108.719,11.43 106.557,12.86 106.557,14.392C106.557,15.328 107.391,15.873 108.464,15.873Z" style="fill-rule:nonzero;"/>
        <path d="M151.109,19.416L151.109,5.186" style="fill:none;stroke:black;stroke-width:0.4px;"/>
        <path d="M147.297,22.256C149.05,22.256 151.212,20.792 151.212,19.294C151.212,18.392 150.412,17.813 149.272,17.813C147.552,17.813 145.39,19.243 145.39,20.775C145.39,21.712 146.225,22.256 147.297,22.256Z" style="fill-rule:nonzero;"/>
        <path d="M178.372,17.288L178.372,3.058" style="fill:none;stroke:black;stroke-width:0.4px;"/>
        <path d="M174.56,20.128C176.313,20.128 178.475,18.664 178.475,17.166C178.475,16.264 177.675,15.685 176.535,15.685C174.815,15.685 172.654,17.115 172.654,18.647C172.654,19.584 173.488,20.128 174.56,20.128Z" style="fill-rule:nonzero;"/>
        <path d="M200.183,14.362L200.183,28.592" style="fill:none;stroke:black;stroke-width:0.4px;"/>
        <path d="M201.956,15.873C203.709,15.873 205.871,14.409 205.871,12.911C205.871,12.009 205.071,11.43 203.931,11.43C202.211,11.43 200.05,12.86 200.05,14.392C200.05,15.328 200.884,15.873 201.956,15.873Z" style="fill-rule:nonzero;"/>
        <path d="M227.446,12.234L227.446,26.464" style="fill:none;stroke:black;stroke-width:0.4px;"/>
        <path d="M229.219,13.745C230.972,13.745 233.134,12.281 233.134,10.783C233.134,9.881 232.334,9.302 231.194,9.302C229.474,9.302 227.313,10.732 227.313,12.264C227.313,13.2 228.147,13.745 229.219,13.745Z" style="fill-rule:nonzero;"/>
        <path d="M271.864,23.671L271.864,9.441" style="fill:none;stroke:black;stroke-width:0.4px;"/>
        <path d="M268.052,26.512C269.806,26.512 271.968,25.048 271.968,23.55C271.968,22.648 271.167,22.069 270.027,22.069C268.308,22.069 266.146,23.499 266.146,25.031C266.146,25.967 266.98,26.512 268.052,26.512Z" style="fill-rule:nonzero;"/>
        <path d="M299.26,21.544L299.26,7.314" style="fill:none;stroke:black;stroke-width:0.4px;"/>
        <path d="M295.448,24.384C297.202,24.384 299.364,22.92 299.364,21.422C299.364,20.52 298.563,19.941 297.423,19.941C295.704,19.941 293.542,21.371 293.542,22.903C293.542,23.839 294.376,24.384 295.448,24.384Z" style="fill-rule:nonzero;"/>
        <path d="M291.034,23.363L289.4,23.908L289.4,20.963L291.034,20.418L291.034,23.363ZM291.034,16.315L291.034,18.869L289.4,19.413L289.4,16.86L288.974,16.86L288.974,19.533L288.089,19.822L288.089,21.371L288.974,21.082L288.974,24.027L288.089,24.316L288.089,25.865L288.974,25.576L288.974,28.01L289.4,28.01L289.4,25.457L291.034,24.912L291.034,27.465L291.46,27.465L291.46,24.793L292.345,24.503L292.345,22.954L291.46,23.244L291.46,20.299L292.345,20.009L292.345,18.46L291.46,18.75L291.46,16.315L291.034,16.315Z" style="fill-rule:nonzero;"/>
        <path d="M326.523,17.288L326.523,3.058" style="fill:none;stroke:black;stroke-width:0.4px;"/>
        <path d="M322.711,20.128C324.465,20.128 326.627,18.664 326.627,17.166C326.627,16.264 325.826,15.685 324.686,15.685C322.967,15.685 320.805,17.115 320.805,18.647C320.805,19.584 321.639,20.128 322.711,20.128Z" style="fill-rule:nonzero;"/>
        <path d="M348.334,16.49L348.334,30.72" style="fill:none;stroke:black;stroke-width:0.4px;"/>
        <path d="M350.107,18.001C351.861,18.001 354.023,16.537 354.023,15.039C354.023,14.136 353.222,13.558 352.082,13.558C350.363,13.558 348.201,14.988 348.201,16.52C348.201,17.456 349.035,18.001 350.107,18.001Z" style="fill-rule:nonzero;"/>
        <path d="M392.753,25.799L392.753,11.569" style="fill:none;stroke:black;stroke-width:0.4px;"/>
        <path d="M388.941,28.64C390.694,28.64 392.856,27.176 392.856,25.678C392.856,24.776 392.056,24.197 390.915,24.197C389.196,24.197 387.034,25.627 387.034,27.159C387.034,28.095 387.868,28.64 388.941,28.64Z" style="fill-rule:nonzero;"/>
        <path d="M420.016,23.671L420.016,9.441" style="fill:none;stroke:black;stroke-width:0.4px;"/>
        <path d="M416.204,26.512C417.957,26.512 420.119,25.048 420.119,23.55C420.119,22.648 419.319,22.069 418.178,22.069C416.459,22.069 414.297,23.499 414.297,25.031C414.297,25.967 415.131,26.512 416.204,26.512Z" style="fill-rule:nonzero;"/>
        <path d="M447.412,19.416L447.412,5.186" style="fill:none;stroke:black;stroke-width:0.4px;"/>
        <path d="M443.6,22.256C445.353,22.256 447.515,20.792 447.515,19.294C447.515,18.392 446.715,17.813 445.574,17.813C443.855,17.813 441.693,19.243 441.693,20.775C441.693,21.712 442.527,22.256 443.6,22.256Z" style="fill-rule:nonzero;"/>
        <path d="M474.675,17.288L474.675,3.058" style="fill:none;stroke:black;stroke-width:0.4px;"/>
        <path d="M470.863,20.128C472.616,20.128 474.778,18.664 474.778,17.166C474.778,16.264 473.978,15.685 472.837,15.685C471.118,15.685 468.956,17.115 468.956,18.647C468.956,19.584 469.79,20.128 470.863,20.128Z" style="fill-rule:nonzero;"/>
    </g>
</svg>
